src/components/logoDark.svg

<?xml version="1.0" encoding="UTF-8"?>
<svg width="227px" height="21px" viewBox="0 0 227 21" version="1.1" xmlns="http://www.w3.org/2000/svg" xmlns:xlink="http://www.w3.org/1999/xlink">
    <!-- Generator: Sketch 59.1 (86144) - https://sketch.com -->
    <title>Logo</title>
    <desc>Created with Sketch.</desc>
    <defs>
        <path d="M50.935,6.0764 L50.935,14.7274 C50.935,15.4534 50.819,16.0534 50.587,16.5294 L50.587,16.5294 C50.355,17.0044 50.068,17.3794 49.726,17.6564 L49.726,17.6564 C49.385,17.9344 49.018,18.1254 48.624,18.2304 L48.624,18.2304 C48.232,18.3374 47.88,18.3884 47.571,18.3884 L47.571,18.3884 C47.262,18.3884 46.91,18.3374 46.517,18.2304 L46.517,18.2304 C46.124,18.1254 45.757,17.9344 45.416,17.6564 L45.416,17.6564 C45.073,17.3794 44.787,17.0044 44.555,16.5294 L44.555,16.5294 C44.323,16.0534 44.207,15.4534 44.207,14.7274 L44.207,14.7274 L44.207,6.0764 L41.5,6.0764 L41.5,14.7274 C41.5,15.6514 41.644,16.4894 41.935,17.2424 L41.935,17.2424 C42.224,17.9934 42.634,18.6314 43.162,19.1604 L43.162,19.1604 C43.691,19.6904 44.33,20.0984 45.078,20.3904 L45.078,20.3904 C45.824,20.6784 46.655,20.8254 47.571,20.8254 L47.571,20.8254 C48.499,20.8254 49.336,20.6784 50.084,20.3904 L50.084,20.3904 C50.831,20.0984 51.468,19.6904 51.998,19.1604 L51.998,19.1604 C52.527,18.6314 52.933,17.9934 53.216,17.2424 L53.216,17.2424 C53.5,16.4894 53.641,15.6514 53.641,14.7274 L53.641,14.7274 L53.641,6.0764 L50.935,6.0764 Z" id="path-1"></path>
        <path d="M56.734,6.0764 L56.734,20.5664 L59.442,20.5664 L59.442,15.9544 L62.121,15.9544 L65.398,20.5664 L68.625,20.5664 L65.101,15.6974 C65.539,15.5774 65.944,15.3694 66.312,15.0734 L66.312,15.0734 C66.68,14.7774 66.99,14.4234 67.242,14.0144 L67.242,14.0144 C67.494,13.6044 67.69,13.1454 67.832,12.6384 L67.832,12.6384 C67.974,12.1314 68.046,11.6054 68.046,11.0654 L68.046,11.0654 C68.046,10.3394 67.925,9.6684 67.686,9.0554 L67.686,9.0554 C67.448,8.4414 67.116,7.9144 66.689,7.4724 L66.689,7.4724 C66.264,7.0304 65.75,6.6884 65.149,6.4444 L65.149,6.4444 C64.55,6.1984 63.888,6.0764 63.165,6.0764 L63.165,6.0764 L56.734,6.0764 Z M59.442,8.5324 L62.525,8.5324 C63.026,8.5324 63.454,8.5974 63.806,8.7304 L63.806,8.7304 C64.16,8.8604 64.448,9.0394 64.672,9.2634 L64.672,9.2634 C64.899,9.4884 65.066,9.7524 65.175,10.0554 L65.175,10.0554 C65.283,10.3594 65.338,10.6874 65.338,11.0464 L65.338,11.0464 C65.338,11.3494 65.3,11.6494 65.222,11.9454 L65.222,11.9454 C65.146,12.2434 65.002,12.5114 64.789,12.7474 L64.789,12.7474 C64.578,12.9864 64.288,13.1774 63.923,13.3214 L63.923,13.3214 C63.555,13.4664 63.091,13.5394 62.525,13.5394 L62.525,13.5394 L59.442,13.5394 L59.442,8.5324 Z" id="path-3"></path>
    </defs>
    <g id="Forside" stroke="none" stroke-width="1" fill="none" fill-rule="evenodd">
        <g id="Forside-5" transform="translate(-63.000000, -32.000000)">
            <g id="Logo" transform="translate(63.000000, 32.000000)">
                <g id="Entur">
                    <polygon id="Fill-1" fill="#181C56" points="0.0001 0 0.0001 14.49 10.4221 14.49 10.4221 12.036 2.7071 12.036 2.7071 8.533 9.5521 8.533 9.5521 6.079 2.7071 6.079 2.7071 2.455 10.4221 2.455 10.4221 0"></polygon>
                    <polygon id="Fill-2" fill="#181C56" points="22.7944 0 22.7944 8.77 13.4954 0 13.2054 0 13.2054 14.49 15.9124 14.49 15.9124 5.881 25.2124 14.49 25.5024 14.49 25.5024 0"></polygon>
                    <polygon id="Fill-3" fill="#FF5959" points="0 20.0524 25.501 20.0524 25.501 17.8244 0 17.8244"></polygon>
                    <polygon id="Fill-4" fill="#181C56" points="28.5463 6.0768 28.5463 8.5318 32.6073 8.5318 32.6073 20.5668 35.3133 20.5668 35.3133 8.5318 39.3543 8.5318 39.3543 6.0768"></polygon>
                    <mask id="mask-2" fill="white">
                        <use xlink:href="#path-1"></use>
                    </mask>
                    <use id="Clip-6" fill="#181C56" xlink:href="#path-1"></use>
                    <mask id="mask-4" fill="white">
                        <use xlink:href="#path-3"></use>
                    </mask>
                    <use id="Clip-9" fill="#181C56" xlink:href="#path-3"></use>
                </g>
            </g>
        </g>
    </g>
</svg>

<?xml version="1.0" encoding="UTF-8" standalone="no"?>
<svg
   xmlns:dc="http://purl.org/dc/elements/1.1/"
   xmlns:cc="http://creativecommons.org/ns#"
   xmlns:rdf="http://www.w3.org/1999/02/22-rdf-syntax-ns#"
   xmlns:svg="http://www.w3.org/2000/svg"
   xmlns="http://www.w3.org/2000/svg"
   xmlns:xlink="http://www.w3.org/1999/xlink"
   xmlns:sodipodi="http://sodipodi.sourceforge.net/DTD/sodipodi-0.dtd"
   xmlns:inkscape="http://www.inkscape.org/namespaces/inkscape"
   inkscape:version="1.0 (1.0+r73+1)"
   sodipodi:docname="logoDark.svg"
   id="svg1096"
   version="1.1"
   viewBox="0 0 68.625 20.825399"
   height="20.825399"
   width="68.625">
  <metadata
     id="metadata1100">
    <rdf:RDF>
      <cc:Work
         rdf:about="">
        <dc:format>image/svg+xml</dc:format>
        <dc:type
           rdf:resource="http://purl.org/dc/dcmitype/StillImage" />
      </cc:Work>
    </rdf:RDF>
  </metadata>
  <sodipodi:namedview
     inkscape:current-layer="svg1096"
     inkscape:window-maximized="0"
     inkscape:window-y="45"
     inkscape:window-x="1920"
     inkscape:cy="10.5"
     inkscape:cx="82.653629"
     inkscape:zoom="5.4625551"
     showgrid="false"
     id="namedview1098"
     inkscape:window-height="1035"
     inkscape:window-width="1920"
     inkscape:pageshadow="2"
     inkscape:pageopacity="0"
     guidetolerance="10"
     gridtolerance="10"
     objecttolerance="10"
     borderopacity="1"
     bordercolor="#666666"
     pagecolor="#ffffff" />
  <!-- Generator: Sketch 59.1 (86144) - https://sketch.com -->
  <title
     id="title1072">Logo</title>
  <desc
     id="desc1074">Created with Sketch.</desc>
  <defs
     id="defs1078">
    <path
       id="path-1"
       d="m 50.935,6.0764 v 8.651 c 0,0.726 -0.116,1.326 -0.348,1.802 v 0 c -0.232,0.475 -0.519,0.85 -0.861,1.127 v 0 c -0.341,0.278 -0.708,0.469 -1.102,0.574 v 0 c -0.392,0.107 -0.744,0.158 -1.053,0.158 v 0 c -0.309,0 -0.661,-0.051 -1.054,-0.158 v 0 c -0.393,-0.105 -0.76,-0.296 -1.101,-0.574 v 0 c -0.343,-0.277 -0.629,-0.652 -0.861,-1.127 v 0 c -0.232,-0.476 -0.348,-1.076 -0.348,-1.802 v 0 -8.651 H 41.5 v 8.651 c 0,0.924 0.144,1.762 0.435,2.515 v 0 c 0.289,0.751 0.699,1.389 1.227,1.918 v 0 c 0.529,0.53 1.168,0.938 1.916,1.23 v 0 c 0.746,0.288 1.577,0.435 2.493,0.435 v 0 c 0.928,0 1.765,-0.147 2.513,-0.435 v 0 c 0.747,-0.292 1.384,-0.7 1.914,-1.23 v 0 c 0.529,-0.529 0.935,-1.167 1.218,-1.918 v 0 c 0.284,-0.753 0.425,-1.591 0.425,-2.515 v 0 -8.651 z" />
    <path
       id="path-3"
       d="m 56.734,6.0764 v 14.49 h 2.708 v -4.612 h 2.679 l 3.277,4.612 h 3.227 l -3.524,-4.869 c 0.438,-0.12 0.843,-0.328 1.211,-0.624 v 0 c 0.368,-0.296 0.678,-0.65 0.93,-1.059 v 0 c 0.252,-0.41 0.448,-0.869 0.59,-1.376 v 0 c 0.142,-0.507 0.214,-1.033 0.214,-1.573 v 0 c 0,-0.726 -0.121,-1.397 -0.36,-2.01 v 0 c -0.238,-0.614 -0.57,-1.141 -0.997,-1.583 v 0 c -0.425,-0.442 -0.939,-0.784 -1.54,-1.028 v 0 C 64.55,6.1984 63.888,6.0764 63.165,6.0764 v 0 z m 2.708,2.456 h 3.083 c 0.501,0 0.929,0.065 1.281,0.198 v 0 c 0.354,0.13 0.642,0.309 0.866,0.533 v 0 c 0.227,0.225 0.394,0.489 0.503,0.792 v 0 c 0.108,0.304 0.163,0.632 0.163,0.991 v 0 c 0,0.303 -0.038,0.603 -0.116,0.899 v 0 c -0.076,0.298 -0.22,0.566 -0.433,0.802 v 0 c -0.211,0.239 -0.501,0.43 -0.866,0.574 v 0 c -0.368,0.145 -0.832,0.218 -1.398,0.218 v 0 h -3.083 z" />
  </defs>
  <g
     fill-rule="evenodd"
     fill="none"
     stroke-width="1"
     stroke="none"
     id="Forside">
    <g
       transform="translate(-63,-32)"
       id="Forside-5">
      <g
         transform="translate(63,32)"
         id="Logo">
        <g
           id="Entur">
          <polygon
             points="10.4221,14.49 10.4221,12.036 2.7071,12.036 2.7071,8.533 9.5521,8.533 9.5521,6.079 2.7071,6.079 2.7071,2.455 10.4221,2.455 10.4221,0 0.0001,0 0.0001,14.49 "
             fill="#181c56"
             id="Fill-1" />
          <polygon
             points="13.4954,0 13.2054,0 13.2054,14.49 15.9124,14.49 15.9124,5.881 25.2124,14.49 25.5024,14.49 25.5024,0 22.7944,0 22.7944,8.77 "
             fill="#181c56"
             id="Fill-2" />
          <polygon
             points="25.501,17.8244 0,17.8244 0,20.0524 25.501,20.0524 "
             fill="#ff5959"
             id="Fill-3" />
          <polygon
             points="32.6073,8.5318 32.6073,20.5668 35.3133,20.5668 35.3133,8.5318 39.3543,8.5318 39.3543,6.0768 28.5463,6.0768 28.5463,8.5318 "
             fill="#181c56"
             id="Fill-4" />
          <mask
             fill="#ffffff"
             id="mask-2">
            <use
               height="100%"
               width="100%"
               y="0"
               x="0"
               id="use1084"
               xlink:href="#path-1" />
          </mask>
          <use
             height="100%"
             width="100%"
             y="0"
             x="0"
             xlink:href="#path-1"
             fill="#181c56"
             id="Clip-6" />
          <mask
             fill="#ffffff"
             id="mask-4">
            <use
               height="100%"
               width="100%"
               y="0"
               x="0"
               id="use1088"
               xlink:href="#path-3" />
          </mask>
          <use
             height="100%"
             width="100%"
             y="0"
             x="0"
             xlink:href="#path-3"
             fill="#181c56"
             id="Clip-9" />
        </g>
      </g>
    </g>
  </g>
</svg>
